X: 28
T:Johnny's So Long at the Fair (Bampton) (BC)
T:Oh Dear, What Can the Matter Be (Bampton) (BC)
M:6/8
L:1/8
O:England; Oxfordshire; Bampton.
B:Lionel Bacon, A Handbook of Morris Dances
Z:http://www.themorrisring.org/music/handbook-morris-dances
P:A(AB2)4
K:G
P:A
B/c/|ded dBc|dge dBG|c3  c3 |cAB cBA|
ded dBc|dge dBG|AcB AGF|G3  G2 ||
P:B
B/c/|ded dBc|dge dBG|cAB cAB|cAB cBA|
dBc dBc|dge dBG|AcB AGF|G3  G2 ||

